svg/fluentui-system-icons/ic_fluent_open_32_regular.svg

<svg width="32" height="32" viewBox="0 0 32 32" fill="none" xmlns="http://www.w3.org/2000/svg">
<path d="M8.5 5C6.567 5 5 6.567 5 8.5V23.5C5 25.433 6.567 27 8.5 27H23.5C25.433 27 27 25.433 27 23.5V19C27 18.4477 27.4477 18 28 18C28.5523 18 29 18.4477 29 19V23.5C29 26.5376 26.5376 29 23.5 29H8.5C5.46243 29 3 26.5376 3 23.5V8.5C3 5.46243 5.46243 3 8.5 3H13C13.5523 3 14 3.44772 14 4C14 4.55228 13.5523 5 13 5H8.5ZM18 4C18 3.44772 18.4477 3 19 3H28.0003C28.5526 3 29.0003 3.44772 29.0003 4V13C29.0003 13.5523 28.5526 14 28.0003 14C27.448 14 27.0003 13.5523 27.0003 13V6.41413L19.7071 13.7073C19.3166 14.0978 18.6834 14.0978 18.2929 13.7073C17.9024 13.3168 17.9024 12.6836 18.2929 12.2931L25.586 5H19C18.4477 5 18 4.55228 18 4Z" fill="#212121"/>
</svg>

<svg xmlns="http://www.w3.org/2000/svg" width="32" height="32"><path d="M8.5 5A3.5 3.5 0 0 0 5 8.5v15A3.5 3.5 0 0 0 8.5 27h15a3.5 3.5 0 0 0 3.5-3.5V19a1 1 0 1 1 2 0v4.5a5.5 5.5 0 0 1-5.5 5.5h-15A5.5 5.5 0 0 1 3 23.5v-15A5.5 5.5 0 0 1 8.5 3H13a1 1 0 1 1 0 2H8.5ZM18 4a1 1 0 0 1 1-1h9a1 1 0 0 1 1 1v9a1 1 0 1 1-2 0V6.414l-7.293 7.293a1 1 0 0 1-1.414-1.414L25.586 5H19a1 1 0 0 1-1-1Z"/></svg>
